X:588
%%etbk:tnset id:324,pos:1,rep:3x,ant:
%%etbk:pldat 2014-09-04T17:58,2014-09-03T18:08,2014-09-02T18:03,2014-09-01T17:58,2014-08-31T11:56,2014-08-28T18:02,2014-08-27T18:07,2014-08-26T15:23,2014-08-25T19:01,2014-08-24T10:45,2014-08-19T18:16,2014-08-06T18:07,2014-08-04T17:56,2014-08-03T14:18,2014-07-26T14:41,2014-07-22T18:08,2014-07-20T11:28,2014-07-18T09:59,2014-07-16T17:32,2014-07-13T13:59,2014-07-05T13:47,2014-07-04T15:29,2014-07-03T09:49
T: The Scotsman Over The Border
Z: Piano Box Version by Martin Fleischmann
H: Created 2014-07-03 /  Last Modified 2014-07-03
R: jig
M: 6/8
L: 1/8
K: Dmix
|: !1!DDD !2!FDF | !3!A!3!F!1!A !4!d2A | !2!BBB BAB | !3!d!5!gf e!2!d!1!B |
!3!A!1!DD !2!FDF | !3!A!2!F!3!A !5!d2!1!A | !2!~B3 !1!A!2!F!1!A | !4!d!1!A!2!F !1!E3 :|
|: !1!d!2!f!4!a afa | !5!ba!2!f !4!a!2!f!1!e | !1!d!2!f!4!a !4!a!3!fe | !1!de!3!f e!1!d!2!B |
!1!d!2!f!4!a afa | !5!ba!2!f !1!e!2!d!1!A | !2!B2B !1!A!2!F!1!A | !4!d!1!A!2!F !1!E3 :|


